src/assets/img/partner/T_Logo.svg

<?xml version="1.0" encoding="UTF-8"?>
<svg width="99px" height="49px" viewBox="0 0 99 49" version="1.1" xmlns="http://www.w3.org/2000/svg" xmlns:xlink="http://www.w3.org/1999/xlink">
    <!-- Generator: Sketch 63.1 (92452) - https://sketch.com -->
    <title>T_Logo_3c_p_DE</title>
    <desc>Created with Sketch.</desc>
    <g id="Visual-design" stroke="none" stroke-width="1" fill="none" fill-rule="evenodd">
        <g id="01-Corona_lp" transform="translate(-254.000000, -5484.000000)" fill="#E20074" fill-rule="nonzero">
            <g id="T_Logo_3c_p_DE" transform="translate(254.000000, 5484.000000)">
                <polygon id="Path" points="0 32.0450018 0 22.2560012 9.80200054 22.2560012 9.80200054 32.0450018"></polygon>
                <polygon id="Path" points="29.8740016 32.0450018 29.8740016 22.2560012 39.6630022 22.2560012 39.6630022 32.0450018"></polygon>
                <polygon id="Path" points="59.2540033 32.0450018 59.2540033 22.2560012 69.0560038 22.2560012 69.0560038 32.0450018"></polygon>
                <polygon id="Path" points="88.6340049 32.0450018 88.6340049 22.2560012 98.4230054 22.2560012 98.4230054 32.0450018"></polygon>
                <path d="M39.1560022,0 L0.481000026,0 L0,17.0560009 L2.60000014,17.498001 C3.06800017,12.4670007 4.39400024,8.73600048 6.5,6.30500035 C8.93057252,3.68628931 12.3660468,2.23354743 15.9380009,2.31400013 L15.9380009,38.0250021 C15.9380009,41.1450023 15.4960009,43.2250024 14.6380008,44.0960024 C13.5486276,45.0247093 12.1693632,45.5442322 10.7380006,45.5650025 C10.1400006,45.6560025 9.25600051,45.6560025 7.95600044,45.6560025 L7.95600044,48.3860027 L31.7720017,48.3860027 L31.7720017,45.6560025 C30.4720017,45.6560025 29.5230016,45.6560025 28.9770016,45.5780025 C27.545639,45.5572322 26.1663746,45.0377093 25.0770014,44.1090024 C24.1670013,43.1860024 23.7770013,41.1580023 23.7770013,38.0380021 L23.7770013,2.32700013 C27.3489554,2.24654743 30.7844297,3.69928931 33.2150018,6.31800035 C35.3730019,8.75333381 36.6946687,12.484334 37.180002,17.511001 L39.7800022,17.0690009 L39.1560022,0 Z" id="Path"></path>
            </g>
        </g>
    </g>
</svg>

<?xml version="1.0" encoding="UTF-8"?>
<svg version="1.1" viewBox="0 0 99 49" 
    xmlns="http://www.w3.org/2000/svg">
    <g fill="none" fill-rule="evenodd">
        <g transform="translate(-254 -5484)" fill="#E20074" fill-rule="nonzero">
            <g transform="translate(254 5484)">
                <polygon id="Path" points="0 32.045 0 22.256 9.802 22.256 9.802 32.045"/>
                <polygon id="Path" points="29.874 32.045 29.874 22.256 39.663 22.256 39.663 32.045"/>
                <polygon id="Path" points="59.254 32.045 59.254 22.256 69.056 22.256 69.056 32.045"/>
                <polygon id="a" points="88.634 32.045 88.634 22.256 98.423 22.256 98.423 32.045"/>
                <path d="m39.156 0h-38.675l-0.481 17.056 2.6 0.442c0.468-5.031 1.794-8.762 3.9-11.193 2.4306-2.6187 5.866-4.0715 9.438-3.991v35.711c0 3.12-0.442 5.2-1.3 6.071-1.0894 0.92871-2.4686 1.4482-3.9 1.469-0.598 0.091-1.482 0.091-2.782 0.091v2.73h23.816v-2.73c-1.3 0-2.249 0-2.795-0.078-1.4314-0.02077-2.8106-0.54029-3.9-1.469-0.91-0.923-1.3-2.951-1.3-6.071v-35.711c3.572-0.080453 7.0074 1.3723 9.438 3.991 2.158 2.4353 3.4797 6.1663 3.965 11.193l2.6-0.442-0.624-17.069z"/>
            </g>
        </g>
    </g>
</svg>
